DuckDuckGo/AppTP.xcassets/AppTPWatching-Blocked.imageset/Watching-Blocked-128.svg

<svg width="128" height="96" viewBox="0 0 128 96" fill="none" xmlns="http://www.w3.org/2000/svg">
<path opacity="0.2" d="M105.629 38.1999L107.171 37.7999C107.457 37.7427 107.743 37.457 107.8 37.1713L108.2 35.6284C108.314 35.2284 108.657 34.9999 109 34.9999C109.4 34.9999 109.743 35.2856 109.8 35.6284L110.2 37.1713C110.257 37.457 110.543 37.7427 110.829 37.7999L112.371 38.1999C112.771 38.3142 113 38.657 113 38.9999C113 39.3999 112.714 39.7427 112.371 39.7999L110.829 40.1999C110.543 40.257 110.257 40.5427 110.2 40.8284L109.8 42.3713C109.686 42.7713 109.343 42.9999 109 42.9999C108.6 42.9999 108.257 42.7142 108.2 42.3713L107.8 40.8284C107.743 40.5427 107.457 40.257 107.171 40.1999L105.629 39.7999C105.229 39.6856 105 39.3427 105 38.9999C105 38.5999 105.286 38.257 105.629 38.1999Z" fill="#888888"/>
<path opacity="0.2" d="M15.9428 31.7999L18.2571 31.1999C18.6857 31.1142 19.1143 30.6856 19.2 30.257L19.8 27.9427C19.9714 27.3427 20.4857 26.9999 21 26.9999C21.6 26.9999 22.1143 27.4284 22.2 27.9427L22.8 30.257C22.8857 30.6856 23.3143 31.1142 23.7429 31.1999L26.0572 31.7999C26.6572 31.9713 27 32.4856 27 32.9999C27 33.5999 26.5714 34.1142 26.0572 34.1999L23.7429 34.7999C23.3143 34.8856 22.8857 35.3142 22.8 35.7427L22.2 38.057C22.0286 38.657 21.5143 38.9999 21 38.9999C20.4 38.9999 19.8857 38.5713 19.8 38.057L19.2 35.7427C19.1143 35.3142 18.6857 34.8856 18.2571 34.7999L15.9428 34.1999C15.3428 34.0285 15 33.5142 15 32.9999C15 32.3999 15.4286 31.8856 15.9428 31.7999Z" fill="#888888"/>
<path opacity="0.2" d="M0.628557 53.1999L2.17142 52.7999C2.45714 52.7427 2.74287 52.457 2.80001 52.1713L3.19999 50.6284C3.31427 50.2284 3.65714 49.9999 4 49.9999C4.4 49.9999 4.74287 50.2856 4.80001 50.6284L5.19999 52.1713C5.25713 52.457 5.54286 52.7427 5.82858 52.7999L7.37144 53.1999C7.77144 53.3142 8 53.657 8 53.9999C8 54.3999 7.7143 54.7427 7.37144 54.7999L5.82858 55.1999C5.54286 55.257 5.25713 55.5427 5.19999 55.8284L4.80001 57.3713C4.68573 57.7713 4.34286 57.9999 4 57.9999C3.6 57.9999 3.25713 57.7142 3.19999 57.3713L2.80001 55.8284C2.74287 55.5427 2.45714 55.257 2.17142 55.1999L0.628557 54.7999C0.228557 54.6856 0 54.3427 0 53.9999C0 53.5999 0.2857 53.257 0.628557 53.1999Z" fill="#888888"/>
<path opacity="0.2" d="M126.5 51.9999C125.675 51.9999 125 51.3249 125 50.4999C125 49.6749 125.675 48.9999 126.5 48.9999C127.325 48.9999 128 49.6749 128 50.4999C128 51.3249 127.325 51.9999 126.5 51.9999Z" fill="#888888"/>
<path opacity="0.2" d="M23 69.9999C21.9 69.9999 21 69.0999 21 67.9999C21 66.8999 21.9 65.9999 23 65.9999C24.1 65.9999 25 66.8999 25 67.9999C25 69.0999 24.1 69.9999 23 69.9999Z" fill="#888888"/>
<path d="M43 48C43 36.402 52.402 27 64 27C75.598 27 85 36.402 85 48C85 59.598 75.598 69 64 69C52.402 69 43 59.598 43 48Z" fill="#C7B9EE"/>
<path fill-rule="evenodd" clip-rule="evenodd" d="M49.872 32.4628C47.3483 36.0041 45.8639 40.3372 45.8639 45.0171C45.8639 56.9775 55.5597 66.6733 67.5201 66.6733C70.9198 66.6733 74.1364 65.89 76.9995 64.4939C73.4239 67.3159 68.9086 69 64 69C52.402 69 43 59.598 43 48C43 41.8425 45.6501 36.304 49.872 32.4628Z" fill="#A591DC"/>
<path d="M58.0938 52.2656C58.0938 45.923 63.2355 40.7812 69.5781 40.7812C75.9208 40.7812 81.0625 45.923 81.0625 52.2656C81.0625 58.6083 75.9208 63.75 69.5781 63.75C63.2355 63.75 58.0938 58.6083 58.0938 52.2656Z" fill="#876ECB"/>
<path d="M64.6563 52.9219C64.6563 49.4787 67.4475 46.6875 70.8906 46.6875C74.3338 46.6875 77.125 49.4787 77.125 52.9219C77.125 56.365 74.3338 59.1562 70.8906 59.1562C67.4475 59.1562 64.6563 56.365 64.6563 52.9219Z" fill="#3E228C"/>
<path d="M70.6816 43.973C70.6816 41.9796 72.2976 40.3636 74.291 40.3636C76.2844 40.3636 77.9004 41.9796 77.9004 43.973C77.9004 45.9664 76.2844 47.5824 74.291 47.5824C72.2976 47.5824 70.6816 45.9664 70.6816 43.973Z" fill="#ECE6FF"/>
<path d="M32 48C32 65.6724 46.3276 80 64 80C81.6724 80 96 65.6724 96 48C96 30.3276 81.6724 16 64 16C46.3276 16 32 30.3276 32 48ZM65.76 74.1981C60.4 74.5486 55.3562 73.28 51.0629 70.8381C49.1924 69.7714 48.8381 67.2229 50.3619 65.699L81.6952 34.3657C83.219 32.8419 85.7676 33.1962 86.8343 35.0667C89.28 39.36 90.5486 44.4038 90.1943 49.7638C89.341 62.7962 78.8 73.341 65.76 74.1981ZM41.1619 60.9371C38.7162 56.6438 37.4476 51.6 37.8019 46.24C38.659 33.2 49.2 22.659 62.24 21.8019C67.6 21.4514 72.6438 22.72 76.9371 25.1619C78.8076 26.2286 79.1619 28.7771 77.6381 30.301L46.3048 61.6343C44.781 63.1581 42.2286 62.8076 41.1619 60.9371Z" fill="#DE5833"/>
</svg>

<svg fill="none" viewBox="0 0 128 96" xmlns="http://www.w3.org/2000/svg">
  <path fill="#888" d="m105.629 38.2 1.542-.4a.875.875 0 0 0 .629-.629l.4-1.543A.84.84 0 0 1 109 35c.4 0 .743.286.8.628l.4 1.543a.875.875 0 0 0 .629.629l1.542.4c.4.114.629.457.629.8 0 .4-.286.743-.629.8l-1.542.4a.875.875 0 0 0-.629.628l-.4 1.543a.84.84 0 0 1-.8.629c-.4 0-.743-.286-.8-.629l-.4-1.543a.875.875 0 0 0-.629-.628l-1.542-.4A.842.842 0 0 1 105 39c0-.4.286-.743.629-.8Zm-89.686-6.4 2.314-.6c.429-.086.857-.514.943-.943l.6-2.314c.171-.6.686-.943 1.2-.943.6 0 1.114.428 1.2.943l.6 2.314c.086.429.514.857.943.943l2.314.6c.6.171.943.686.943 1.2 0 .6-.429 1.114-.943 1.2l-2.314.6c-.429.086-.857.514-.943.943l-.6 2.314c-.171.6-.686.943-1.2.943-.6 0-1.114-.429-1.2-.943l-.6-2.314c-.086-.429-.514-.857-.943-.943l-2.314-.6c-.6-.172-.943-.686-.943-1.2 0-.6.429-1.114.943-1.2ZM.629 53.2l1.542-.4a.876.876 0 0 0 .629-.629l.4-1.543A.841.841 0 0 1 4 50c.4 0 .743.286.8.628l.4 1.543a.876.876 0 0 0 .629.629l1.542.4c.4.114.629.457.629.8 0 .4-.286.743-.629.8l-1.542.4a.875.875 0 0 0-.629.628l-.4 1.543A.841.841 0 0 1 4 58c-.4 0-.743-.286-.8-.629l-.4-1.543a.875.875 0 0 0-.629-.628L.63 54.8A.841.841 0 0 1 0 54c0-.4.286-.743.629-.8ZM126.5 52c-.825 0-1.5-.675-1.5-1.5s.675-1.5 1.5-1.5 1.5.675 1.5 1.5-.675 1.5-1.5 1.5ZM23 70c-1.1 0-2-.9-2-2s.9-2 2-2 2 .9 2 2-.9 2-2 2Z" opacity=".2"/>
  <path fill="#C7B9EE" d="M43 48c0-11.598 9.402-21 21-21s21 9.402 21 21-9.402 21-21 21-21-9.402-21-21Z"/>
  <path fill="#A591DC" fill-rule="evenodd" d="M49.872 32.463a21.557 21.557 0 0 0-4.008 12.554c0 11.96 9.696 21.656 21.656 21.656 3.4 0 6.616-.783 9.48-2.18A20.91 20.91 0 0 1 64 69c-11.598 0-21-9.402-21-21 0-6.157 2.65-11.696 6.872-15.537Z" clip-rule="evenodd"/>
  <path fill="#876ECB" d="M58.094 52.266c0-6.343 5.142-11.485 11.484-11.485 6.343 0 11.484 5.142 11.484 11.485 0 6.342-5.141 11.484-11.484 11.484s-11.484-5.142-11.484-11.484Z"/>
  <path fill="#3E228C" d="M64.656 52.922a6.234 6.234 0 1 1 12.469 0 6.234 6.234 0 0 1-12.469 0Z"/>
  <path fill="#ECE6FF" d="M70.682 43.973a3.61 3.61 0 1 1 7.219 0 3.61 3.61 0 0 1-7.22 0Z"/>
  <path fill="#DE5833" d="M32 48c0 17.672 14.328 32 32 32s32-14.328 32-32-14.328-32-32-32-32 14.328-32 32Zm33.76 26.198a26.141 26.141 0 0 1-14.697-3.36c-1.87-1.067-2.225-3.615-.701-5.139l31.333-31.333c1.524-1.524 4.073-1.17 5.14.7a26.08 26.08 0 0 1 3.36 14.698C89.34 62.796 78.8 73.34 65.76 74.198Zm-24.598-13.26a26.08 26.08 0 0 1-3.36-14.698C38.659 33.2 49.2 22.659 62.24 21.802c5.36-.35 10.404.918 14.697 3.36 1.87 1.067 2.225 3.615.701 5.139L46.305 61.634c-1.524 1.524-4.076 1.174-5.143-.697Z"/>
</svg>
